X:1
T:Title
%%score { 1 | 2 }
L:1/8
M:4/4
K:G
V:1 treble nm="Grand Piano"
V:2 treble 
V:1
 z4 z2[Q:1/4=100] GA | B2 B2 B2 AG | [EA]2 [EG]2 [CE][EG][DF][CE] | [B,D]2 [B,D]2 G2 AB | %4
 [GB]2 [FA]2 [FA][Fd][Fd][EFc] | B2 B2 B2 AG | [EA]2 [EG]2 [CE] [EG]2 E | D2 B2 B B2 G | %8
[M:3/4] A4 [B,G]2 |[M:1/4] [=FG][FG] |[M:4/4] [EG][Ec][Ec][Ec] [Ec]2 EE | DBBB B2 Bc | %12
 d2 d2 d2 B2 | [FA]6 [Fd][Ac] | B2 B2 B2 AG | [EA]2 [EG]2 [CE] [EG]2 E | D2 B2 B B2 G | %17
[M:3/4] A4 [B,G]2 |] %18
V:2
 z4 z2 [G,B,D][G,CD] | [G,DG]2 [G,DG]2 [G,DG]2[K:bass] [G,CD][G,B,D] | %2
 [C,C]2 [C,C]2 [C,G,][C,C][C,C][C,G,] | [G,,G,]2 [G,,G,]2[K:treble] [G,B,D]2 [G,CD][G,DG] | %4
 [D,D]2 [D,D]2 [D,D][D,A,][D,A,]D, | [G,DG]2 [G,DG]2 [G,DG]2 [G,CD][G,B,D] | %6
 [C,C]2 [C,C]2 [C,G,] [C,C]2 [C,G,C] | [D,G,B,]2 [D,G,D]2 [D,G,D] [D,G,D]2 [D,G,B,] | %8
[M:3/4] [D,F,C]4 [G,,G,]2 |[M:1/4] [G,B,][G,B,] | %10
[M:4/4] [C,C][C,G,][C,G,][C,G,] [C,G,]2 [C,G,C][C,G,C] | %11
 [G,B,][K:treble][G,D][G,G][G,E] [G,D]2 [G,D][G,A,D] | [G,B,G]2 [A,CF]2 [B,DG]2 [G,DG]2 | %13
 [D,D]6 [D,A,][D,D] | [G,DG]2 [G,DG]2 [G,DG]2 [G,C=F][G,B,F] | %15
 [C,C]2 [C,C]2 [C,G,] [C,C]2 [C,G,C] | [D,G,B,]2 [D,G,D]2 [D,G,D] [D,G,D]2 [D,G,B,] | %17
[M:3/4] [D,F,C]4 [G,,G,]2 |] %18

